X: 31913
T: Peacock's Feathers, The
R: hornpipe
M: 4/4
K: Dmajor
|:AG|FEDF A2AB|defd B2ef|gefd edBd|AGFD E2EG|
FEDF A2AB|defd B2ef|gefd edBd|Adfe d2:|
|:fg|afge fdec|defd B2ef|gefd edBd|AGFD E2EG|
FEDF A2AB|defd B2ef|gefd edBd|Adfe d2:|

